public/images/icons/clipboard-api-icon.svg

<svg fill="none" height="48" viewBox="0 0 48 48" width="48" xmlns="http://www.w3.org/2000/svg"><circle cx="24" cy="24" fill="#efd81c" r="24"/><path d="m20 29.3333h.0133m-.0133-14.6666h-2.6667c-.7072 0-1.3855.2809-1.8856.781s-.781 1.1784-.781 1.8856v16c0 .7073.2809 1.3856.781 1.8857.5001.5 1.1784.781 1.8856.781h13.3334c.7072 0 1.3855-.281 1.8856-.781.5001-.5001.781-1.1784.781-1.8857v-16c0-.7072-.2809-1.3855-.781-1.8856s-1.1784-.781-1.8856-.781h-2.6667zm0 0c0 .7072.2809 1.3855.781 1.8856s1.1784.781 1.8857.781h2.6666c.7073 0 1.3856-.2809 1.8856-.781.5001-.5001.7811-1.1784.7811-1.8856zm0 0c0-.7073.2809-1.3856.781-1.8857.5001-.5 1.1784-.781 1.8857-.781h2.6666c.7073 0 1.3856.281 1.8856.781.5001.5001.7811 1.1784.7811 1.8857zm4 9.3333h4zm0 5.3333h4zm-4-5.3333h.0133z" stroke="#000" stroke-linecap="round" stroke-linejoin="round" stroke-width="2"/></svg>

<svg width="48" height="48" viewBox="0 0 48 48" fill="none" xmlns="http://www.w3.org/2000/svg">
<circle cx="24" cy="24" r="24" fill="#EFD81C"/>
<path d="M20 29.3333H20.0133M20 14.6667H17.3333C16.6261 14.6667 15.9478 14.9476 15.4477 15.4477C14.9476 15.9478 14.6667 16.6261 14.6667 17.3333V33.3333C14.6667 34.0406 14.9476 34.7189 15.4477 35.219C15.9478 35.719 16.6261 36 17.3333 36H30.6667C31.3739 36 32.0522 35.719 32.5523 35.219C33.0524 34.7189 33.3333 34.0406 33.3333 33.3333V17.3333C33.3333 16.6261 33.0524 15.9478 32.5523 15.4477C32.0522 14.9476 31.3739 14.6667 30.6667 14.6667H28H20ZM20 14.6667C20 15.3739 20.2809 16.0522 20.781 16.5523C21.2811 17.0524 21.9594 17.3333 22.6667 17.3333H25.3333C26.0406 17.3333 26.7189 17.0524 27.2189 16.5523C27.719 16.0522 28 15.3739 28 14.6667H20ZM20 14.6667C20 13.9594 20.2809 13.2811 20.781 12.781C21.2811 12.281 21.9594 12 22.6667 12H25.3333C26.0406 12 26.7189 12.281 27.2189 12.781C27.719 13.2811 28 13.9594 28 14.6667H20ZM24 24H28H24ZM24 29.3333H28H24ZM20 24H20.0133H20Z" stroke="black" stroke-width="2" stroke-linecap="round" stroke-linejoin="round"/>
</svg>
